X:1
T:Crudel perche
T:Crudel perche
T:Ludovico Bellanda Veronese
T:Source : Musische di L.Bellanda---Venetia---G.Vincenti---1607. Editor : André Vierendeels (26/06/15).
T:Notes : Original clefs : C4, F4 Editorial accidentals above the staff Figures in BC are notated in original print
T:#
C:Ludovico Bellanda Veronese
%%score 1 2
L:1/8
Q:1/4=120
M:4/4
K:C
V:1 treble-8 nm="Tenor" snm="T"
V:2 bass nm="BC" snm="BC"
V:1
 z4 G4 | d8 | z2 G2 dedc | B/d/c/B/ A/G/F/E/ D2 G2 | z2 d2 c2 B2 | A/G/A/B/ G/A/B/c/ d4- | %6
w: Cru-|del,|cru- del per che fug-|gi- * * * * * * * * sti?|Dop- pa ch'el|cor _ _ _ _ _ _ _ _|
 d A/G/ A/B/c/A/ B4 | A8 ::z4z2xG |"^#" G/D/E/F/ G/A/B/c/ d4 | d2 G2 A4 | A2 A3 G ^F2 | G3 E E4- | %13
w: _ fe- * * * * * ri-|sti?|la|fa- * * * * * * * *|ga cre- den-|ti fat le fe-|ri- te lie-|
 E4 E4 |: z4 F4 | ^F4 G4 | A4 _B4 | _B4 A4- | A2 B2 ^G4- | G4 z2 c2- | cc B2 d4- | d2 c/B/A A4 | %22
w: * vi,|ah-|i, che|piu lo|di- strug-|* * gi,|_ men-|* tre fe- ri-|* to'il _ _ fug-|
 G8 :| %23
w: gi,|
V:2
 G,,4 G,4- | G,4 F,4 | G,2 G,,4 ^F,,2 | G,,8 | G,4 A,2 G,2 | F,2 E,2 D,4 | E,8 | A,,8 :: C,8 | %9
 C,4 G,,4 | G,2 E,2 D,4 | D,8 | G,,4 A,,4- | A,,4 A,,4 |: D,6 C,2 |"^5" B,,2 A,,2 G,,4 | D,8 | %17
 C,6 D,2 | E,8- | E,4 C,4- |"^6" C,4 B,,4 | D,8 | G,,8 :| %23

